src/img/dot-underline.svg

<?xml version="1.0" encoding="utf-8"?>
<!-- Generator: Adobe Illustrator 27.1.1, SVG Export Plug-In . SVG Version: 6.00 Build 0)  -->
<svg version="1.1" id="Calque_1" xmlns="http://www.w3.org/2000/svg" xmlns:xlink="http://www.w3.org/1999/xlink" x="0px" y="0px"
	 viewBox="0 0 200.1 12" style="enable-background:new 0 0 200.1 12;" xml:space="preserve">
<style type="text/css">
	.st0{fill-rule:evenodd;clip-rule:evenodd;fill:#B8FF2B;}
</style>
<g id="Page-1">
	<g id="Extra-Large" transform="translate(-63.000000, -836.000000)">
		<g id="HEADER" transform="translate(0.000000, 7.000000)">
			<g id="Group-22" transform="translate(63.000000, 829.000000)">
				<path id="Fill-1" class="st0" d="M25,12c-3.4,0-6-2.5-6-5.9C19,2.8,21.6,0,24.9,0C28.1,0,31,2.8,31,6C31,9.3,28.4,12,25,12"/>
				<path id="Fill-3" class="st0" d="M43.9,12C40.5,12,38,9.4,38,6c0-3.3,2.8-6,6.1-6c3.3,0.1,6,2.9,5.9,6.1C50,9.5,47.3,12,43.9,12
					"/>
				<path id="Fill-5" class="st0" d="M69,6c0,3.4-2.5,6-6,6c-3.5,0-6-2.5-6-5.9C57,2.7,59.6,0,62.9,0C66.3,0,69,2.7,69,6"/>
				<path id="Fill-7" class="st0" d="M82,12c-3.5,0-6-2.5-6-5.9C76,2.7,78.6,0,81.9,0c3.3,0,6,2.7,6.1,6C88,9.3,85.4,12,82,12"/>
				<path id="Fill-9" class="st0" d="M12,6.1C12,9.6,9.4,12,6,12c-3.4,0-6-2.7-6-6c0.1-3.3,2.8-6,6.1-6C9.5,0.1,12,2.7,12,6.1"/>
				<path id="Fill-11" class="st0" d="M121,12c-3.4,0-6-2.5-6-5.9c0-3.3,2.6-6.1,5.9-6.1c3.2,0,6.1,2.8,6.1,6
					C127,9.3,124.4,12,121,12"/>
				<path id="Fill-13" class="st0" d="M139.9,12c-3.4,0-5.9-2.6-5.9-6c0-3.3,2.8-6,6.1-6c3.3,0.1,6,2.9,5.9,6.1
					C146,9.5,143.3,12,139.9,12"/>
				<path id="Fill-11_00000012473296165945036930000014567881743545868726_" class="st0" d="M158.8,12c-3.4,0-6-2.5-6-5.9
					c0-3.3,2.6-6.1,5.9-6.1c3.2,0,6.1,2.8,6.1,6C164.8,9.3,162.2,12,158.8,12"/>
				<path id="Fill-13_00000140712206560919210890000012998221109281761413_" class="st0" d="M176.7,12c-3.4,0-5.9-2.6-5.9-6
					c0-3.3,2.8-6,6.1-6c3.3,0.1,6,2.9,5.9,6.1C182.7,9.5,180.1,12,176.7,12"/>
				<path id="Fill-13_00000112591096311442618690000000129882163812496780_" class="st0" d="M194,12c-3.4,0-5.9-2.6-5.9-6
					c0-3.3,2.8-6,6.1-6c3.3,0.1,6,2.9,5.9,6.1C200,9.5,197.4,12,194,12"/>
				<path id="Fill-20" class="st0" d="M108,6.1c0,3.4-2.6,5.9-6,5.9c-3.4,0-6-2.7-6-6c0.1-3.3,2.8-6,6.1-6
					C105.5,0.1,108,2.7,108,6.1"/>
			</g>
		</g>
	</g>
</g>
</svg>

<?xml version="1.0" encoding="UTF-8"?>
<svg width="201px" height="12px" viewBox="0 0 201 12" version="1.1" xmlns="http://www.w3.org/2000/svg" xmlns:xlink="http://www.w3.org/1999/xlink">
    <title>dot-underline</title>
    <g id="Page-1" stroke="none" stroke-width="1" fill="none" fill-rule="evenodd">
        <g id="dot-underline" fill="#B8FF2B">
            <path d="M25,12 C21.6,12 19,9.5 19,6.1 C19,2.8 21.6,0 24.9,0 C28.1,0 31,2.8 31,6 C31,9.3 28.4,12 25,12" id="Fill-1"></path>
            <path d="M43.9,12 C40.5,12 38,9.4 38,6 C38,2.7 40.8,0 44.1,0 C47.4,0.1 50.1,2.9 50,6.1 C50,9.5 47.3,12 43.9,12" id="Fill-3"></path>
            <path d="M69,6 C69,9.4 66.5,12 63,12 C59.5,12 57,9.5 57,6.1 C57,2.7 59.6,0 62.9,0 C66.3,0 69,2.7 69,6" id="Fill-5"></path>
            <path d="M82,12 C78.5,12 76,9.5 76,6.1 C76,2.7 78.6,0 81.9,0 C85.2,0 87.9,2.7 88,6 C88,9.3 85.4,12 82,12" id="Fill-7"></path>
            <path d="M12,6.1 C12,9.6 9.4,12 6,12 C2.6,12 0,9.3 0,6 C0.1,2.7 2.8,0 6.1,0 C9.5,0.1 12,2.7 12,6.1" id="Fill-9"></path>
            <path d="M121,12 C117.6,12 115,9.5 115,6.1 C115,2.8 117.6,0 120.9,0 C124.1,0 127,2.8 127,6 C127,9.3 124.4,12 121,12" id="Fill-11"></path>
            <path d="M139.9,12 C136.5,12 134,9.4 134,6 C134,2.7 136.8,0 140.1,0 C143.4,0.1 146.1,2.9 146,6.1 C146,9.5 143.3,12 139.9,12" id="Fill-13"></path>
            <path d="M158.8,12 C155.4,12 152.8,9.5 152.8,6.1 C152.8,2.8 155.4,0 158.7,0 C161.9,0 164.8,2.8 164.8,6 C164.8,9.3 162.2,12 158.8,12" id="Fill-11_00000012473296165945036930000014567881743545868726_"></path>
            <path d="M176.7,12 C173.3,12 170.8,9.4 170.8,6 C170.8,2.7 173.6,0 176.9,0 C180.2,0.1 182.9,2.9 182.8,6.1 C182.7,9.5 180.1,12 176.7,12" id="Fill-13_00000140712206560919210890000012998221109281761413_"></path>
            <path d="M194,12 C190.6,12 188.1,9.4 188.1,6 C188.1,2.7 190.9,0 194.2,0 C197.5,0.1 200.2,2.9 200.1,6.1 C200,9.5 197.4,12 194,12" id="Fill-13_00000112591096311442618690000000129882163812496780_"></path>
            <path d="M108,6.1 C108,9.5 105.4,12 102,12 C98.6,12 96,9.3 96,6 C96.1,2.7 98.8,0 102.1,0 C105.5,0.1 108,2.7 108,6.1" id="Fill-20"></path>
        </g>
    </g>
</svg>
